PC_client/assets/icon/close.svg

<svg height="48" viewBox="0 0 1024 1024" width="48" xmlns="http://www.w3.org/2000/svg"><path d="m1023.600998 91.107232-90.310225-90.310225-421.290773 421.333666-421.290773-421.333666-90.310225 90.310225 421.333666 421.29177-421.333666 421.332669 90.310224 90.267332 421.290774-421.289776 421.290773 421.290773 90.310224-90.267332-421.333665-421.333666z" fill="#d13954"/></svg>

<?xml version="1.0" standalone="no"?><!DOCTYPE svg PUBLIC "-//W3C//DTD SVG 1.1//EN" "http://www.w3.org/Graphics/SVG/1.1/DTD/svg11.dtd"><svg t="1543502089064" class="icon" style="" viewBox="0 0 1024 1024" version="1.1" xmlns="http://www.w3.org/2000/svg" p-id="9242" xmlns:xlink="http://www.w3.org/1999/xlink" width="48" height="48"><defs><style type="text/css"></style></defs><path d="M1023.600998 91.107232 933.290773 0.797007 512 422.130673 90.709227 0.797007 0.399002 91.107232 421.732668 512.399002 0.399002 933.731671l90.310224 90.267332L512 602.709227l421.290773 421.290773 90.310224-90.267332L602.267332 512.399002 1023.600998 91.107232z" p-id="9243" fill="#d13954"></path></svg>
